X:3
T: dr Obwaldner  Bb (trad.)
T:Dirigenten-Notiz, Edi Gasser. 
C:Unterwalden (CH)
M:2/4
%Q:1/4=110
R:Naturjodel
L:1/4
K:Bb
[P:A] F| DB/D/ | Fd/c/ | B>F | D/c/ B/D/ | Fd/c/ | B>D | 
Ff | "jeder Ton breit"e/F/ d/c/ | (B2 | !breath!B) F | DB/D/ | Fd/c/ | B>F | 
D/c/ B/D/ | Fd/c/ | B>D | Ff | "jeder Ton breit"e/F/ d/c/ | (B2 | B) ||
[P:B] B | A/c/ F/A/ | EF | f/e/ c/d/ | B/d/ F/B/ | DF | f/d/ B/d/ | c/e/ F/A/ | 
EF | f/e/ c/d/ | B/D/ F/d/ | (B2 | !breath!B) B | A/c/ F/A/ | EF | f/e/ c/d/ | 
B/d/ F/B/ | DF | f/d/ B/d/ | c/e/ F/A/ | EF | f/e/ c/d/ | !fermata!B || 
M:2/4+3/4
[P:C]
F =E/F/ | Ge | d/f/ e/c/ | BdF  | f>d c/B/ | AcF  | 
f>e d/c/ | Bd | !fermata!F2 | F =E/F/ | Ge | d/f/ e/c/ | 
BdF  | f>d c/B/ | AcF | f>e d/c/ | (B3 | B)z |] 
W: Reihenfolge: A-B-A-C
W:
W:Dem ursprÃ¼nglich, namenlosen zweiteiligen Juiz, gab man den Namen "d'r Obwaldner". 
W: Der Vorjodler Robert Britschgi komponierte 1960 den dritten Teil.
W:
W: UJV-Naturjodelsammlung: Code-Nr: 00-12
W:http://www.naturjodler.ch/tradition-2.htm  (with AUDIO)
%April 21, 2018

